src/shared/assets/icons/theme-dark.svg

<svg width="40" height="41" viewBox="0 0 40 41" fill="none" xmlns="http://www.w3.org/2000/svg">
<g clip-path="url(#clip0_2_11)">
<path d="M10.8481 1.04421C7.31755 3.30995 4.93097 7.30947 4.93097 11.8803C4.93097 16.4512 7.31755 20.4507 10.9073 22.7165C4.85207 22.7165 0 17.8698 0 11.8803C0 9.00642 1.14292 6.25021 3.17734 4.21804C5.21176 2.18587 7.97102 1.04421 10.8481 1.04421Z" fill="#0115C6"/>
<path d="M14.9704 15.8996L12.6824 14.4613L10.4734 15.9981L11.144 13.3974L8.99408 11.7621L11.6765 11.5848L12.5641 9.04325L13.57 11.5454L16.2525 11.6045L14.1815 13.3186L14.9704 15.8996Z" fill="#0115C6"/>
<path d="M21.4793 8.78712L18.5602 6.95483L15.7199 8.92503L16.5483 5.57568L13.8067 3.48727L17.2584 3.25084L18.4024 0L19.7239 3.21144L23.1361 3.27054L20.4734 5.49688L21.4793 8.78712Z" fill="#0115C6"/>
<path d="M33.6686 3.99952L36.4891 6.81691L5.7791 37.493L2.95859 34.6756L33.6686 3.99952Z" fill="#0115C6"/>
<path d="M33.5306 23.7016C33.5306 26.5755 32.3876 29.3317 30.3532 31.3639C28.3188 33.3961 25.5595 34.5377 22.6824 34.5377C20.2761 34.5377 18.0473 33.7496 16.2525 32.4296L31.4201 17.2787C32.7416 19.0716 33.5306 21.2979 33.5306 23.7016Z" fill="#0115C6"/>
<path d="M33.3925 31.346L35.6607 25.8885L40 30.8928L33.3925 31.346Z" fill="#0115C6"/>
<path d="M35.6607 21.5738L33.4122 16.0966L40 16.5694L35.6607 21.5738Z" fill="#0115C6"/>
<path d="M24.8521 36.6655L30.3156 34.3998L29.8422 41L24.8521 36.6655Z" fill="#0115C6"/>
<path d="M15.0493 34.3998L20.5128 36.6655L15.5227 40.9803L15.0493 34.3998Z" fill="#0115C6"/>
</g>
<defs>
<clipPath id="clip0_2_11">
<rect width="40" height="41" fill="white"/>
</clipPath>
</defs>
</svg>

<?xml version="1.0" encoding="utf-8"?>
<!-- Generator: Adobe Illustrator 25.0.0, SVG Export Plug-In . SVG Version: 6.00 Build 0)  -->
<svg version="1.1" id="Слой_1" xmlns="http://www.w3.org/2000/svg" xmlns:xlink="http://www.w3.org/1999/xlink" x="0px" y="0px"
	 viewBox="0 0 40 41" style="enable-background:new 0 0 40 41;" xml:space="preserve">
<style type="text/css">
	.st0{clip-path:url(#SVGID_2_);}
	.st1{fill:#00022E;}
</style>
<g>
	<defs>
		<rect id="SVGID_1_" y="0" width="40" height="41"/>
	</defs>
	<clipPath id="SVGID_2_">
		<use xlink:href="#SVGID_1_"  style="overflow:visible;"/>
	</clipPath>
	<g class="st0">
		<path class="st1" d="M10.8,1C7.3,3.3,4.9,7.3,4.9,11.9c0,4.6,2.4,8.6,6,10.8C4.9,22.7,0,17.9,0,11.9C0,9,1.1,6.3,3.2,4.2
			S8,1,10.8,1z"/>
		<path class="st1" d="M15,15.9l-2.3-1.4L10.5,16l0.7-2.6L9,11.8l2.7-0.2L12.6,9l1,2.5l2.7,0.1l-2.1,1.7L15,15.9z"/>
		<path class="st1" d="M21.5,8.8L18.6,7l-2.8,2l0.8-3.3l-2.7-2.1l3.5-0.2L18.4,0l1.3,3.2l3.4,0.1l-2.7,2.2L21.5,8.8z"/>
		<path class="st1" d="M33.7,4l2.8,2.8L5.8,37.5L3,34.7L33.7,4z"/>
		<path class="st1" d="M33.5,23.7c0,2.9-1.1,5.6-3.2,7.7s-4.8,3.2-7.7,3.2c-2.4,0-4.6-0.8-6.4-2.1l15.2-15.2
			C32.7,19.1,33.5,21.3,33.5,23.7z"/>
		<path class="st1" d="M33.4,31.3l2.3-5.5l4.3,5L33.4,31.3z"/>
		<path class="st1" d="M35.7,21.6l-2.2-5.5l6.6,0.5L35.7,21.6z"/>
		<path class="st1" d="M24.9,36.7l5.5-2.3L29.8,41L24.9,36.7z"/>
		<path class="st1" d="M15,34.4l5.5,2.3l-5,4.3L15,34.4z"/>
	</g>
</g>
</svg>
